views/1/public/assets/trusted.svg

<svg enable-background="new 0 0 64 64" viewBox="0 0 64 64" xmlns="http://www.w3.org/2000/svg"><g fill="#c2beda"><path d="m58.3496017 4.1445498h-52.7002015c-3.1152002 0-5.6494002 2.5341001-5.6494002 5.6494003v36.5263023c0 3.1152992 2.5342 5.6493988 5.6494002 5.6493988h18.1132984c.5528011 0 1-.4472008 1-1 0-.5527-.4471989-1-1-1h-18.1132984c-2.0126001-.0000009-3.6494002-1.6367006-3.6494002-3.6493997v-36.5263014c0-2.0127001 1.6368001-3.6494003 3.6494002-3.6494003h52.7002029c2.0126978 0 3.6503969 1.6367002 3.6503969 3.6494003v36.5263023c0 2.0126991-1.6376991 3.6493988-3.6503983 3.6493988-.5527 0-1 .4473-1 1 0 .5527992.4473 1 1 1 3.1152993-.0000009 5.6503983-2.5341005 5.6503983-5.6493997v-36.5263014c0-3.1153002-2.535099-5.6494003-5.6503983-5.6494003z"/><path d="m22 32.1445503h-12c-.5527 0-1 .4472008-1 1 0 .5527.4473 1 1 1h12c.5527992 0 1-.4473 1-1 0-.5527992-.4472008-1-1-1z"/><path d="m22 38.6943512h-12c-.5527 0-1 .447197-1 1 0 .5527.4473 1 1 1h12c.5527992 0 1-.4473 1-1 0-.552803-.4472008-1-1-1z"/><path d="m51.7373009 42.0009499c-.0184021-.0629997-.0586014-.1109009-.0876007-.167099 2.075901-2.3039017 3.3502998-5.344101 3.3502998-8.6893006 0-7.1797009-5.8203011-13-13-13s-13 5.8202991-13 13c0 3.3083992 1.2462006 6.3186989 3.2815018 8.6133995-.0209999.0455017-.054203.0820999-.0686035.1316986l-4.2069988 14.4238014c-.1103992.3788986.0116997.7860985.3115005 1.0419998.2998009.2558022.7217007.3096008 1.0771999.1416016l4.4160004-2.097702 2.7743988 4.0235023c.1884995.2733994.4980011.4325981.8232002.4325981.0567017 0 .1133003-.0048981.170002-.014698.384697-.0664024.6952972-.3496017.7958984-.7265015l3.476799-12.9772987c.0502015.000599.0988007.0075989.1491013.0075989.0237999 0 .0467987-.0035019.0705986-.0036011l3.4773026 12.9733009c.1005974.3759995.410099.6591988.7938995.7265015.0575981.0098.1152992.014698.1718979.014698.3241997 0 .6318016-.1571999.8213005-.4286995l2.7831993-4.0038986 4.4111023 2.0760994c.3544998.1660995.7753983.1103973 1.0761986-.1455002.2988014-.2558022.419899-.6621017.3096008-1.0400009zm-9.7373009-19.8563996c6.0654984 0 11 4.9344997 11 11 0 6.0653992-4.9345016 11-11 11-6.0653992 0-11-4.9346008-11-11 0-6.0655002 4.9346008-11 11-11zm-4.9970016 34.3613014-2.0292969-2.9424019c-.2784004-.4033012-.8067017-.5479012-1.2520027-.3358994l-3.1718979 1.5067978 3.3372993-11.441597c1.6879005 1.3512001 3.7200012 2.2819977 5.9437981 2.6563988zm13.2021026-3.2529029c-.4424019-.2050972-.9687004-.0664978-1.2471008.3339005l-2.0360985 2.9296989-2.8292007-10.5556984c2.2247009-.3610001 4.2586975-1.2793007 5.9528999-2.6175995l3.3274994 11.400898z"/><path d="m23 15.1445503c0-1.1046-.8953991-2-2-2h-10c-1.1044998 0-2 .8954-2 2v10c0 1.1044998.8955002 2 2 2h10c1.1046009 0 2-.8955002 2-2zm-2 10h-10v-10h10z"/><path d="m42 39.1445503c3.3138008 0 6-2.6863022 6-6 0-3.3138008-2.6861992-6-6-6-3.3137016 0-6 2.6861992-6 6 0 3.3136978 2.6862984 6 6 6zm0-10c2.2056999 0 4 1.7943001 4 4 0 2.2056007-1.7943001 4-4 4-2.2056007 0-4-1.7943993-4-4 0-2.2056999 1.7943993-4 4-4z"/></g></svg>

<svg xmlns="http://www.w3.org/2000/svg" xmlns:xlink="http://www.w3.org/1999/xlink" version="1.1" id="Layer_1" x="0px" y="0px" viewBox="0 0 64 64" enable-background="new 0 0 64 64" xml:space="preserve">
<g id="Certificate">
	<path d="M58.3496017,4.1445498H5.6494002C2.5342,4.1445498,0,6.6786499,0,9.7939501v36.5263023   c0,3.1152992,2.5342,5.6493988,5.6494002,5.6493988h18.1132984c0.5528011,0,1-0.4472008,1-1c0-0.5527-0.4471989-1-1-1H5.6494002   C3.6368001,49.9696503,2,48.3329506,2,46.3202515V9.7939501C2,7.78125,3.6368001,6.1445498,5.6494002,6.1445498h52.7002029   C60.3623009,6.1445498,62,7.78125,62,9.7939501v36.5263023c0,2.0126991-1.6376991,3.6493988-3.6503983,3.6493988   c-0.5527,0-1,0.4473-1,1c0,0.5527992,0.4473,1,1,1C61.464901,51.9696503,64,49.4355507,64,46.3202515V9.7939501   C64,6.6786499,61.464901,4.1445498,58.3496017,4.1445498z" fill="#c2beda"/>
	<path d="M22,32.1445503H10c-0.5527,0-1,0.4472008-1,1c0,0.5527,0.4473,1,1,1h12c0.5527992,0,1-0.4473,1-1   C23,32.5917511,22.5527992,32.1445503,22,32.1445503z" fill="#c2beda"/>
	<path d="M22,38.6943512H10c-0.5527,0-1,0.447197-1,1c0,0.5527,0.4473,1,1,1h12c0.5527992,0,1-0.4473,1-1   C23,39.1415482,22.5527992,38.6943512,22,38.6943512z" fill="#c2beda"/>
	<path d="M51.7373009,42.0009499c-0.0184021-0.0629997-0.0586014-0.1109009-0.0876007-0.167099   C53.7256012,39.5299492,55,36.4897499,55,33.1445503c0-7.1797009-5.8203011-13-13-13s-13,5.8202991-13,13   c0,3.3083992,1.2462006,6.3186989,3.2815018,8.6133995c-0.0209999,0.0455017-0.054203,0.0820999-0.0686035,0.1316986   l-4.2069988,14.4238014c-0.1103992,0.3788986,0.0116997,0.7860985,0.3115005,1.0419998   c0.2998009,0.2558022,0.7217007,0.3096008,1.0771999,0.1416016l4.4160004-2.097702l2.7743988,4.0235023   c0.1884995,0.2733994,0.4980011,0.4325981,0.8232002,0.4325981c0.0567017,0,0.1133003-0.0048981,0.170002-0.014698   c0.384697-0.0664024,0.6952972-0.3496017,0.7958984-0.7265015l3.476799-12.9772987   C41.9011002,46.1375504,41.9496994,46.1445503,42,46.1445503c0.0237999,0,0.0467987-0.0035019,0.0705986-0.0036011   l3.4773026,12.9733009c0.1005974,0.3759995,0.410099,0.6591988,0.7938995,0.7265015   c0.0575981,0.0098,0.1152992,0.014698,0.1718979,0.014698c0.3241997,0,0.6318016-0.1571999,0.8213005-0.4286995   l2.7831993-4.0038986l4.4111023,2.0760994c0.3544998,0.1660995,0.7753983,0.1103973,1.0761986-0.1455002   c0.2988014-0.2558022,0.419899-0.6621017,0.3096008-1.0400009L51.7373009,42.0009499z M42,22.1445503   c6.0654984,0,11,4.9344997,11,11c0,6.0653992-4.9345016,11-11,11c-6.0653992,0-11-4.9346008-11-11   C31,27.0790501,35.9346008,22.1445503,42,22.1445503z M37.0029984,56.5058517l-2.0292969-2.9424019   c-0.2784004-0.4033012-0.8067017-0.5479012-1.2520027-0.3358994l-3.1718979,1.5067978l3.3372993-11.441597   c1.6879005,1.3512001,3.7200012,2.2819977,5.9437981,2.6563988L37.0029984,56.5058517z M50.205101,53.2529488   c-0.4424019-0.2050972-0.9687004-0.0664978-1.2471008,0.3339005l-2.0360985,2.9296989L44.092701,45.9608498   c2.2247009-0.3610001,4.2586975-1.2793007,5.9528999-2.6175995l3.3274994,11.400898L50.205101,53.2529488z" fill="#c2beda"/>
	<path d="M23,15.1445503c0-1.1046-0.8953991-2-2-2H11c-1.1044998,0-2,0.8954-2,2v10c0,1.1044998,0.8955002,2,2,2h10   c1.1046009,0,2-0.8955002,2-2V15.1445503z M21,25.1445503H11v-10h10V25.1445503z" fill="#c2beda"/>
	<path d="M42,39.1445503c3.3138008,0,6-2.6863022,6-6c0-3.3138008-2.6861992-6-6-6c-3.3137016,0-6,2.6861992-6,6   C36,36.4582481,38.6862984,39.1445503,42,39.1445503z M42,29.1445503c2.2056999,0,4,1.7943001,4,4c0,2.2056007-1.7943001,4-4,4   c-2.2056007,0-4-1.7943993-4-4C38,30.9388504,39.7943993,29.1445503,42,29.1445503z" fill="#c2beda"/>
</g>
<g>
</g>
<g>
</g>
<g>
</g>
<g>
</g>
<g>
</g>
<g>
</g>
<g>
</g>
<g>
</g>
<g>
</g>
<g>
</g>
<g>
</g>
<g>
</g>
<g>
</g>
<g>
</g>
<g>
</g>
</svg>
